X: 1
T:Polka Sekstur
R:Sextur
O:Denmark
M:2/4
K:D
AAAA B2B2| AAAA d2d2|1 cccc e2e2| dddd f2f2\
:|2 cccc e3c | d2d2 d2z2 :|
|:\
a2g2 f2e2 | d2df A3d | \
c2ce A3c \
|1 d2f2 a4  :|2 d2f2 d2z2 :|
|:\
d2F2 A2d2 | f2d2 e2g2 \
|1 ba^ga =gece | ba^ga fdAF \
:|2ba^ga =gecA | d2f2 d2z2 :|
